X: 17
T: MARMADUKE'S HORNPIPE
S: "Community Dances Manual 6", EFDSS, Jack Hamilton ed., 1981 p.11
R: reel
Z: 2010 John Chambers <jc:trillian.mit.edu>
M: 4/4
L: 1/8
K: D
"A"|: A2 |\
"D"A2A2 AdBA | "D"F2FF D2D2 | "A7"E2A2 E2A2 | "A7"E2A2 E2A2 |\
"D"A2AA AdBA | "D"F2FF D2D2 | "A7"E2A2 E2E2 | "D"F3E D2 :|
"B"|:\
"D"d2e2 fefe | "G"d2e2 gege | "D"d2e2 f2df | "A7"e2A2 ABcA |\
"D"d2e2 fefe | "G"d2e2 g3a | "Em"b2a2 "A7"g2e2 | "D"d4 d2z2 :|

%%sep 2 1 500
%%sep 1 1 500

